Catalina-light/actions/22/go-jump.svg

<svg xmlns="http://www.w3.org/2000/svg" viewBox="0 0 22 22">
  <defs id="defs3051">
    <style type="text/css" id="current-color-scheme">
      .ColorScheme-Text {
        color:#4d4d4d
      }
      </style>
  </defs>
 <path 
     style="fill:currentColor;fill-opacity:1;stroke:none"      
	 class="ColorScheme-Text"
        d="M 4.8300781 3 C 4.5433132 3.0010368 4.2570001 3.1124232 4.0390625 3.3320312 C 3.6031867 3.7710703 3.6058822 4.4799628 4.0449219 4.9160156 L 10.154297 10.980469 L 4.0878906 17.089844 C 3.6520147 17.528847 3.654711 18.237952 4.09375 18.673828 C 4.532755 19.110094 5.2436361 19.107398 5.6796875 18.667969 L 12.533203 11.763672 C 12.751106 11.544153 12.860412 11.25749 12.859375 10.970703 C 12.858339 10.684058 12.746864 10.397732 12.527344 10.179688 L 5.6230469 3.3261719 C 5.4034385 3.1081458 5.1168431 2.9989632 4.8300781 3 z M 16.287109 9 A 2 2 0 0 0 14.287109 11 A 2 2 0 0 0 16.287109 13 A 2 2 0 0 0 18.287109 11 A 2 2 0 0 0 16.287109 9 z "
     />
</svg>

<svg viewBox="0 0 22 22" xmlns="http://www.w3.org/2000/svg">
<defs>
<style id="current-color-scheme" type="text/css">.ColorScheme-Text {
        color:#4d4d4d
      }</style>
</defs>
<path class="ColorScheme-Text" d="m4.8301 3c-0.28676 0.0010368-0.57308 0.11242-0.79102 0.33203-0.43588 0.43904-0.43318 1.1479 0.0058594 1.584l6.1094 6.0645-6.0664 6.1094c-0.43588 0.439-0.43318 1.1481 0.0058594 1.584 0.439 0.43627 1.1499 0.43357 1.5859-0.005859l6.8535-6.9043c0.2179-0.21952 0.32721-0.50618 0.32617-0.79297-0.001036-0.28664-0.11251-0.57297-0.33203-0.79102l-6.9043-6.8535c-0.21961-0.21803-0.5062-0.32721-0.79297-0.32617zm11.457 6a2 2 0 0 0-2 2 2 2 0 0 0 2 2 2 2 0 0 0 2-2 2 2 0 0 0-2-2z" fill="currentColor"/>
</svg>
